X:1
T:On the Cross of Calvary
T:On the Cross of Calvary
T:Attributed to William Kirkpatrick (1839-1921)
T:Sarah Jean Graham, 1886
T:Public Domain Courtesy of the Cyber Hymnal™
T:Public Domain Courtesy of the Cyber Hymnal™
C:Attributed to William Kirkpatrick (1839-1921)
Z:Public Domain
Z:Courtesy of the Cyber Hymnal™
%%score ( 1 2 ) ( 3 4 )
L:1/8
Q:1/4=105
M:4/4
K:Bb
V:1 treble 
V:2 treble 
V:3 bass 
V:4 bass 
V:1
 [B,D][CE] | ([DF-]4 F)FBc | [Fd]6 [Ec][DB] x2 | ([Ec-]4 c)BBG x4 | [DF]6 [B,D][CE] | (F4- F)FBc | %6
w: 1.~On the|cross * of Cal- va-|ry, Je- sus|died * for you and|me; There He|shed * His pre- cious|
w: 2.~O what|wond- * rous, wond- rous|love Brought me|down * at Je- sus’|feet! O such|wond- * rous, dy- ing|
w: 3.~Take me,|Je- * sus, I am|Thine, Whol- ly|Thine, * for- ev- er-|more; Bless- èd|Je- * sus, Thou art|
w: 4.~Clouds and|dark- * ness veiled the|sky When the|Lord * was cru- ci-|fied; It is|fin- * ished! was His|
 [DB]6 AB | ([Fc-]4 c)GBA | F6 [CF][CF] | [Fc]4- [Fc][CF][FB][Fc] | [Fd]6 cB x4 | c B3 B3 G | %12
w: blood, That from|sin * we might be|free. O the|cleans- * ing stream does|flow, And it|wash- es white as|
w: love Asks a|sac- * ri- fice com-|plete! Here I|give * my- self to|Thee, Soul and|bo- dy, Thine to|
w: mine, Dwell with-|in * for- ev- er-|more; Cleanse, O|cleanse * my heart from|sin, Make and|keep me pure with-|
w: cry When He|bowed * His head and|died. With this|cry * from Cal- v’ry’s|tree All the|world may now go|
 [DF]4- [DF][CE][B,D][CE] | ([DF-]4 F)FBc | ([Fd]4 e3) z e | [Fd]3 [DB] [Ec]3 [EA] | [DB]4- [DB] || %17
w: snow! * It was for|me * that Je- sus|died * On|* the cross of|Cal- *|
w: be; * It was for|me * Thy blood was|shed * On|* the cross of|Cal- *|
w: in! * It was for|this * Thy blood was|shed * On|* the cross of|Cal- *|
w: free; * It was for|this * that Je- sus|died * On|* the cross of|Cal- *|
"^Refrain" FGF | (z [Fc])[_EG]F x4 | [Fd]4- [Fd]D[B,D][B,E] | F4- FF[FB][Fc] | ([Fd]4 e3) z e | %22
w: va- ry. *|||||
w: va- ry. *|||||
w: va- ry. On|* Cal- va-|ry! * On Cal- va-|ry! * It was for|me * that|
w: va- ry. *|||||
 [Fd]3 [FB] [Fc]3 [FA] | [FB]6 |] %24
w: ||
w: ||
w: * Je- sus died|On|
w: ||
V:2
 x2 | x4 B,2 F2 | x10 | x4 G2 E2 x4 | x8 | D6 D2 | x6 F2 | x4 =E2 E2 | F6 x2 | x8 | x6 F2 x4 | %11
 E4 E4 | x8 | x4 B,2 F2 | x4 E2 G2 x | x8 | x5 || x3 | c4 (F F =E F) | x8 | (D2 C2 B,2) x2 | %21
 x4 E2 G2 x | x8 | x6 |] %24
V:3
 [B,,F,][B,,F,] | ([B,,B,]4 [D,B,]3) [F,A,] | B,6 z2 _A,2 | G,4 z2 x6 | B,6 [B,,G,][B,,_G,] | %5
w: ~ ~|~ * ~|~ ~||~ ~ ~|
 (F,4 B,2) [D,^F,]2 | G,6 A,G, | (A,4 B,2) DC | [F,A,]6 [F,A,][F,A,] | %9
w: ~ * ~|~ ~ ~|~ * ~ ~|~ ~ ~|
 [F,A,]4- [F,A,][E,A,][D,B,][C,A,] | (B,4 z2) x6 | [E,G,]4 G,3 B, | ([B,,B,]4 F,4) | %13
w: ~ * ~ ~ ~|~|~ ~ ~|~ *|
 ([B,,B,]4 [D,B,]3) [F,A,] | B,4 B,4 x | [F,B,]4 [F,A,]3 [F,C] | [B,,B,]4- [B,,B,] || F,G,F, | %18
w: ~ * ~|~ ~|~ ~ ~|~ *|~ ~ ~|
 (C[F,A,] [G,B,]2 [A,C]2) [F,A,]2 | B,6 B,2 | ([F,B,]2 [E,A,]2 [D,F,]2) [D,B,][C,A,] | %21
w: ~ * * * *|||
 (_A,2 G,2 G,2) =B,2 x | B,3 D [F,E]3 [F,C] | [B,,D]6 |] %24
w: |||
V:4
 x2 | x8 | B,4 B,,4 x2 | E,6 (B,4 G,2) | (B,4 B,,2) x2 | B,,6 x2 | (G,4 D,2) _D,2 | C,6 C,2 | x8 | %9
 x8 | B,,6 (_A,4 D,2) | x4 E,4 | x4 F,4 | x8 | (B,2 _A,2 G,2) C,2 x | x8 | x5 || x3 | x8 | %19
 (B,B,,D,F, A,)G, x2 | x8 | =B,,4 C,4 x | F,4 x4 | x6 |] %24

